X: 35286
T: Rose Of Drishane, The
R: hornpipe
M: 4/4
K: Dmajor
|:fe|dA FA de fa|af bf a2 fg|af (3gfe fa gf|(3efe (3dcB A2 fe|
dA FA de fa|af bf a2 fg|af ba ge cd|ed (3ddd df:|
|:fg|a3b af df|g3a g2 fg|(3agf (3gfe fa gf|(3efe (3dcB A2 fe|
dA FA de fa|af bf a2 fg|af ba ge cd|ed (3ddd d2:|

